packages/foundations/assets/icons/functional/images/maps/station_24.svg

<svg width="24" height="24" viewBox="0 0 24 24" fill="none" xmlns="http://www.w3.org/2000/svg">
<g clip-path="url(#clip0_186_124)">
<path fill-rule="evenodd" clip-rule="evenodd" d="M12 2C17.5228 2 22 6.47715 22 12C22 17.5228 17.5228 22 12 22C6.47715 22 2 17.5228 2 12C2 6.47715 6.47715 2 12 2ZM12 4C7.58172 4 4 7.58172 4 12C4 16.4183 7.58172 20 12 20C16.4183 20 20 16.4183 20 12C20 7.58172 16.4183 4 12 4ZM8.837 6.86532L8.95362 6.87204C9.4127 6.92537 9.77695 7.28962 9.83027 7.7487L9.837 7.86532L9.83699 11.0373H14.163L14.163 7.86532C14.163 7.35248 14.549 6.92981 15.0464 6.87205L15.163 6.86532H15.263C15.7758 6.86532 16.1985 7.25136 16.2563 7.7487L16.263 7.86532V16.0433C16.263 16.5562 15.877 16.9788 15.3796 17.0366L15.263 17.0433H15.163C14.6502 17.0433 14.2275 16.6573 14.1697 16.1599L14.163 16.0433L14.163 12.6193H9.83699L9.837 16.0433C9.837 16.5562 9.45096 16.9788 8.95362 17.0366L8.837 17.0433H8.737C8.22416 17.0433 7.80149 16.6573 7.74373 16.1599L7.737 16.0433V7.86532C7.737 7.35248 8.12304 6.92981 8.62038 6.87205L8.737 6.86532H8.837Z" fill="#1A1C1F"/>
</g>
<defs>
<clipPath id="clip0_186_124">
<rect width="24" height="24" fill="white"/>
</clipPath>
</defs>
</svg>

<svg xmlns="http://www.w3.org/2000/svg" width="24" height="24" fill="none"><g clip-path="url(#a)"><path fill="#1A1C1F" fill-rule="evenodd" d="M12 2c5.523 0 10 4.477 10 10s-4.477 10-10 10S2 17.523 2 12 6.477 2 12 2m0 2a8 8 0 1 0 0 16 8 8 0 0 0 0-16M8.837 6.865l.117.007a1 1 0 0 1 .876.877l.007.116v3.172h4.326V7.865a1 1 0 0 1 .883-.993l.117-.007h.1a1 1 0 0 1 .993.884l.007.116v8.178a1 1 0 0 1-.883.994l-.117.006h-.1a1 1 0 0 1-.993-.883l-.007-.117V12.62H9.837v3.424a1 1 0 0 1-.883.994l-.117.006h-.1a1 1 0 0 1-.993-.883l-.007-.117V7.865a1 1 0 0 1 .883-.993l.117-.007z" clip-rule="evenodd"/></g><defs><clipPath id="a"><path fill="#fff" d="M0 0h24v24H0z"/></clipPath></defs></svg>
